X:1
T:the Highland Fair
R:Reel
%Q:1/2=112
F:http://www.math.mun.ca/~bshawyer/reels/HighlandFair.abc
F:http://www.ibiblio.org/fiddlers/HIGH.htm
K:A
M:4/4
L:1/8
   F | "A"E2EF EFAc | "E7"dcBA GBBd | "A"cAec dcBA | "E7"GABd "A"cAA :|
|: f | "A"eAc{B}A eAce | "A"eAc{B}A "E7"GABg | "A"eAc{B}A eAc{B}A | "E7"GABd "A"cAA :|
